website/src/static/table/scroll.svg

<svg width="144" height="80" viewBox="0 0 144 80" fill="none" xmlns="http://www.w3.org/2000/svg">
<g clip-path="url(#clip0_430_19516)">
<mask id="path-3-inside-1_430_19516" fill="white">
<path d="M0 0H40V40H0V0Z"/>
</mask>
<path d="M0 0H40V40H0V0Z" fill="#F4F5F9"/>
<path d="M40 39H0V41H40V39Z" fill="#E0E1E9" mask="url(#path-3-inside-1_430_19516)"/>
<rect x="12.5" y="12.5" width="15" height="15" rx="3.5" fill="white"/>
<rect x="12.5" y="12.5" width="15" height="15" rx="3.5" stroke="#C4C7CF"/>
<mask id="path-6-inside-2_430_19516" fill="white">
<path d="M0 40H40V80H0V40Z"/>
</mask>
<path d="M0 40H40V80H0V40Z" fill="white"/>
<path d="M40 79H0V81H40V79Z" fill="#E0E1E9" mask="url(#path-6-inside-2_430_19516)"/>
<rect x="12.5" y="52.5" width="15" height="15" rx="3.5" fill="white"/>
<rect x="12.5" y="52.5" width="15" height="15" rx="3.5" stroke="#C4C7CF"/>
<mask id="path-9-inside-3_430_19516" fill="white">
<path d="M40 40H144V80H40V40Z"/>
</mask>
<path d="M40 40H144V80H40V40Z" fill="white"/>
<path d="M144 79H40V81H144V79Z" fill="#E0E1E9" mask="url(#path-9-inside-3_430_19516)"/>
<path d="M53.1186 67V56.8182H54.6548V65.6776H59.2685V67H53.1186ZM64.1183 67.1541C63.4023 67.1541 62.7776 66.9901 62.244 66.6619C61.7103 66.3338 61.296 65.8748 61.0011 65.2848C60.7061 64.6948 60.5586 64.0054 60.5586 63.2166C60.5586 62.4245 60.7061 61.7318 61.0011 61.1385C61.296 60.5452 61.7103 60.0845 62.244 59.7564C62.7776 59.4283 63.4023 59.2642 64.1183 59.2642C64.8342 59.2642 65.4589 59.4283 65.9925 59.7564C66.5262 60.0845 66.9405 60.5452 67.2354 61.1385C67.5304 61.7318 67.6779 62.4245 67.6779 63.2166C67.6779 64.0054 67.5304 64.6948 67.2354 65.2848C66.9405 65.8748 66.5262 66.3338 65.9925 66.6619C65.4589 66.9901 64.8342 67.1541 64.1183 67.1541ZM64.1232 65.9062C64.5872 65.9062 64.9717 65.7836 65.2766 65.5384C65.5816 65.2931 65.8069 64.9666 65.9528 64.5589C66.1019 64.1513 66.1765 63.7022 66.1765 63.2116C66.1765 62.7244 66.1019 62.277 65.9528 61.8693C65.8069 61.4583 65.5816 61.1286 65.2766 60.88C64.9717 60.6314 64.5872 60.5071 64.1232 60.5071C63.6559 60.5071 63.2681 60.6314 62.9599 60.88C62.6549 61.1286 62.4279 61.4583 62.2788 61.8693C62.1329 62.277 62.06 62.7244 62.06 63.2116C62.06 63.7022 62.1329 64.1513 62.2788 64.5589C62.4279 64.9666 62.6549 65.2931 62.9599 65.5384C63.2681 65.7836 63.6559 65.9062 64.1232 65.9062ZM70.8237 62.4659V67H69.3372V59.3636H70.764V60.6065H70.8585C71.0342 60.2022 71.3092 59.8774 71.6838 59.6321C72.0616 59.3868 72.5372 59.2642 73.1106 59.2642C73.631 59.2642 74.0867 59.3736 74.4778 59.5923C74.8689 59.8078 75.1722 60.1293 75.3876 60.5568C75.603 60.9844 75.7108 61.513 75.7108 62.1428V67H74.2243V62.3217C74.2243 61.7682 74.0801 61.3357 73.7917 61.0241C73.5034 60.7093 73.1073 60.5518 72.6035 60.5518C72.2588 60.5518 71.9522 60.6264 71.6838 60.7756C71.4186 60.9247 71.2082 61.1435 71.0524 61.4318C70.8999 61.7169 70.8237 62.0616 70.8237 62.4659ZM80.9061 70.0227C80.2995 70.0227 79.7775 69.9432 79.34 69.7841C78.9058 69.625 78.5512 69.4145 78.2761 69.1527C78.001 68.8909 77.7955 68.6042 77.6596 68.2926L78.9373 67.7656C79.0268 67.9115 79.1461 68.0656 79.2953 68.228C79.4477 68.3937 79.6532 68.5346 79.9118 68.6506C80.1736 68.7666 80.51 68.8246 80.921 68.8246C81.4844 68.8246 81.9501 68.687 82.318 68.4119C82.6859 68.1402 82.8699 67.706 82.8699 67.1094V65.608H82.7754C82.6859 65.7704 82.5566 65.951 82.3876 66.1499C82.2219 66.3487 81.9932 66.5211 81.7015 66.6669C81.4099 66.8127 81.0304 66.8857 80.563 66.8857C79.9598 66.8857 79.4163 66.7448 78.9324 66.4631C78.4518 66.178 78.0706 65.7588 77.7889 65.2053C77.5105 64.6484 77.3713 63.964 77.3713 63.152C77.3713 62.34 77.5088 61.6439 77.7839 61.0639C78.0623 60.4839 78.4435 60.0398 78.9274 59.7315C79.4113 59.42 79.9598 59.2642 80.573 59.2642C81.0469 59.2642 81.4297 59.3438 81.7214 59.5028C82.0131 59.6586 82.2401 59.8409 82.4025 60.0497C82.5682 60.2585 82.6958 60.4425 82.7853 60.6016H82.8947V59.3636H84.3514V67.169C84.3514 67.8253 84.1989 68.3639 83.894 68.7848C83.5891 69.2057 83.1764 69.5173 82.6561 69.7195C82.139 69.9216 81.5557 70.0227 80.9061 70.0227ZM80.8912 65.6527C81.3187 65.6527 81.68 65.5533 81.975 65.3544C82.2733 65.1522 82.4986 64.8639 82.6511 64.4893C82.8069 64.1115 82.8848 63.6591 82.8848 63.1321C82.8848 62.6184 82.8085 62.166 82.6561 61.7749C82.5036 61.3838 82.2799 61.0788 81.9849 60.8601C81.6899 60.638 81.3253 60.527 80.8912 60.527C80.4437 60.527 80.0708 60.643 79.7725 60.875C79.4743 61.1037 79.2489 61.4152 79.0964 61.8097C78.9473 62.2041 78.8727 62.6449 78.8727 63.1321C78.8727 63.6326 78.9489 64.0717 79.1014 64.4496C79.2538 64.8274 79.4792 65.1224 79.7775 65.3345C80.0791 65.5466 80.4503 65.6527 80.8912 65.6527ZM91.5366 56.8182V67H90.0501V56.8182H91.5366ZM93.5364 67V59.3636H95.0229V67H93.5364ZM94.2871 58.1854C94.0286 58.1854 93.8065 58.0992 93.6209 57.9268C93.4386 57.7512 93.3475 57.5424 93.3475 57.3004C93.3475 57.0552 93.4386 56.8464 93.6209 56.674C93.8065 56.4983 94.0286 56.4105 94.2871 56.4105C94.5456 56.4105 94.766 56.4983 94.9483 56.674C95.1339 56.8464 95.2267 57.0552 95.2267 57.3004C95.2267 57.5424 95.1339 57.7512 94.9483 57.9268C94.766 58.0992 94.5456 58.1854 94.2871 58.1854ZM98.5092 62.4659V67H97.0227V59.3636H98.4496V60.6065H98.544C98.7197 60.2022 98.9948 59.8774 99.3693 59.6321C99.7472 59.3868 100.223 59.2642 100.796 59.2642C101.317 59.2642 101.772 59.3736 102.163 59.5923C102.554 59.8078 102.858 60.1293 103.073 60.5568C103.289 60.9844 103.396 61.513 103.396 62.1428V67H101.91V62.3217C101.91 61.7682 101.766 61.3357 101.477 61.0241C101.189 60.7093 100.793 60.5518 100.289 60.5518C99.9444 60.5518 99.6378 60.6264 99.3693 60.7756C99.1042 60.9247 98.8937 61.1435 98.7379 61.4318C98.5855 61.7169 98.5092 62.0616 98.5092 62.4659ZM106.757 64.4098L106.747 62.5952H107.006L110.048 59.3636H111.828L108.358 63.0426H108.124L106.757 64.4098ZM105.39 67V56.8182H106.876V67H105.39ZM110.212 67L107.478 63.3707L108.502 62.3317L112.037 67H110.212ZM122.61 61.228L121.263 61.4666C121.207 61.2943 121.117 61.1302 120.994 60.9744C120.875 60.8187 120.713 60.6911 120.507 60.5916C120.302 60.4922 120.045 60.4425 119.737 60.4425C119.316 60.4425 118.964 60.5369 118.683 60.7259C118.401 60.9115 118.26 61.1518 118.26 61.4467C118.26 61.7019 118.355 61.9074 118.544 62.0632C118.732 62.219 119.037 62.3466 119.458 62.446L120.671 62.7244C121.374 62.8868 121.898 63.1371 122.242 63.4751C122.587 63.8132 122.759 64.2524 122.759 64.7926C122.759 65.25 122.627 65.6577 122.362 66.0156C122.1 66.3703 121.734 66.6487 121.263 66.8509C120.796 67.053 120.254 67.1541 119.637 67.1541C118.782 67.1541 118.084 66.9718 117.544 66.6072C117.004 66.2393 116.673 65.7173 116.55 65.0412L117.987 64.8224C118.076 65.197 118.26 65.4804 118.539 65.6726C118.817 65.8615 119.18 65.956 119.627 65.956C120.115 65.956 120.504 65.8549 120.796 65.6527C121.087 65.4472 121.233 65.197 121.233 64.902C121.233 64.6634 121.144 64.4628 120.965 64.3004C120.789 64.138 120.519 64.0154 120.154 63.9325L118.862 63.6491C118.149 63.4867 117.622 63.2282 117.281 62.8736C116.943 62.5189 116.774 62.0698 116.774 61.5263C116.774 61.0755 116.9 60.6811 117.151 60.343C117.403 60.005 117.751 59.7415 118.195 59.5526C118.64 59.3603 119.148 59.2642 119.722 59.2642C120.547 59.2642 121.197 59.4432 121.671 59.8011C122.145 60.1558 122.458 60.6314 122.61 61.228ZM127.61 67.1541C126.895 67.1541 126.27 66.9901 125.736 66.6619C125.203 66.3338 124.788 65.8748 124.493 65.2848C124.198 64.6948 124.051 64.0054 124.051 63.2166C124.051 62.4245 124.198 61.7318 124.493 61.1385C124.788 60.5452 125.203 60.0845 125.736 59.7564C126.27 59.4283 126.895 59.2642 127.61 59.2642C128.326 59.2642 128.951 59.4283 129.485 59.7564C130.018 60.0845 130.433 60.5452 130.728 61.1385C131.023 61.7318 131.17 62.4245 131.17 63.2166C131.17 64.0054 131.023 64.6948 130.728 65.2848C130.433 65.8748 130.018 66.3338 129.485 66.6619C128.951 66.9901 128.326 67.1541 127.61 67.1541ZM127.615 65.9062C128.079 65.9062 128.464 65.7836 128.769 65.5384C129.074 65.2931 129.299 64.9666 129.445 64.5589C129.594 64.1513 129.669 63.7022 129.669 63.2116C129.669 62.7244 129.594 62.277 129.445 61.8693C129.299 61.4583 129.074 61.1286 128.769 60.88C128.464 60.6314 128.079 60.5071 127.615 60.5071C127.148 60.5071 126.76 60.6314 126.452 60.88C126.147 61.1286 125.92 61.4583 125.771 61.8693C125.625 62.277 125.552 62.7244 125.552 63.2116C125.552 63.7022 125.625 64.1513 125.771 64.5589C125.92 64.9666 126.147 65.2931 126.452 65.5384C126.76 65.7836 127.148 65.9062 127.615 65.9062Z" fill="#006DCA"/>
<mask id="path-12-inside-4_430_19516" fill="white">
<path d="M40 0H144V40H40V0Z"/>
</mask>
<path d="M40 0H144V40H40V0Z" fill="#F4F5F9"/>
<path d="M144 40V41H145V40H144ZM143 0V40H145V0H143ZM144 39H40V41H144V39Z" fill="#E0E1E9" mask="url(#path-12-inside-4_430_19516)"/>
<path d="M52.5284 16.4062V15.2727H59.2827V16.4062H56.5597V24H55.2472V16.4062H52.5284ZM60.7752 24V15.2727H62.092V19.0653H66.4428V15.2727H67.7638V24H66.4428V20.1946H62.092V24H60.7752Z" fill="#191B23"/>
<rect x="1" y="73" width="40" height="6" rx="3" fill="#191B23" fill-opacity="0.3"/>
<rect width="80" height="5" transform="matrix(0 -1 1 0 139 80)" fill="url(#paint0_linear_430_19516)"/>
</g>
<rect x="0.5" y="0.5" width="143" height="79" rx="5.5" stroke="#E0E1E9"/>
<defs>
<linearGradient id="paint0_linear_430_19516" x1="40" y1="0" x2="40" y2="5" gradientUnits="userSpaceOnUse">
<stop stop-color="white" stop-opacity="0"/>
<stop offset="0.884989" stop-color="#191B23" stop-opacity="0.1"/>
</linearGradient>
<clipPath id="clip0_430_19516">
<rect width="144" height="80" rx="6" fill="white"/>
</clipPath>
</defs>
</svg>

<svg xmlns="http://www.w3.org/2000/svg" width="144" height="80" fill="none"><mask id="a" fill="#fff"><path d="M0 0h40v40H0V0Z"/></mask><path fill="#F4F5F9" d="M0 0h40v40H0V0Z"/><rect width="15" height="15" x="12.5" y="12.5" fill="#fff" rx="3.5"/><rect width="15" height="15" x="12.5" y="12.5" stroke="#C4C7CF" rx="3.5"/><path fill="#E0E1E9" d="M40 39H0v2h40v-2Z" mask="url(#a)"/><mask id="b" fill="#fff"><path d="M0 40h40v40H0V40Z"/></mask><path fill="#fff" d="M0 40h40v40H0V40Z"/><rect width="15" height="15" x="12.5" y="52.5" fill="#fff" rx="3.5"/><rect width="15" height="15" x="12.5" y="52.5" stroke="#C4C7CF" rx="3.5"/><path fill="#E0E1E9" d="M40 79H0v2h40v-2Z" mask="url(#b)"/><mask id="c" fill="#fff"><path d="M40 40h104v40H40V40Z"/></mask><path fill="#fff" d="M40 40h104v40H40V40Z"/><path fill="#006DCA" d="M53.119 67V56.818h1.536v8.86h4.614V67h-6.15Zm11 .154c-.717 0-1.341-.164-1.875-.492a3.317 3.317 0 0 1-1.243-1.377c-.295-.59-.442-1.28-.442-2.068 0-.792.147-1.485.442-2.078a3.31 3.31 0 0 1 1.243-1.383c.534-.328 1.158-.492 1.874-.492.716 0 1.34.164 1.875.492a3.31 3.31 0 0 1 1.242 1.383c.295.593.443 1.285.443 2.078 0 .788-.148 1.478-.443 2.068a3.317 3.317 0 0 1-1.242 1.377c-.534.328-1.159.492-1.875.492Zm.004-1.248c.464 0 .849-.122 1.154-.368.305-.245.53-.571.676-.98.149-.407.224-.856.224-1.346 0-.488-.075-.935-.224-1.343a2.187 2.187 0 0 0-.676-.989c-.305-.249-.69-.373-1.154-.373-.467 0-.855.124-1.163.373a2.22 2.22 0 0 0-.681.99 3.958 3.958 0 0 0-.219 1.342c0 .49.073.94.219 1.347.149.408.376.734.68.98.31.245.697.367 1.164.367Zm6.7-3.44V67h-1.486v-7.636h1.427v1.242h.095c.175-.404.45-.729.825-.974.378-.245.853-.368 1.427-.368.52 0 .976.11 1.367.328.39.216.694.537.91.965.215.427.323.956.323 1.586V67h-1.487v-4.678c0-.554-.144-.986-.432-1.298-.289-.315-.685-.472-1.189-.472a1.86 1.86 0 0 0-.92.224c-.264.149-.475.367-.63.656-.153.285-.23.63-.23 1.034Zm10.083 7.557c-.607 0-1.129-.08-1.566-.239-.434-.159-.789-.37-1.064-.631a2.65 2.65 0 0 1-.616-.86l1.277-.527c.09.145.21.3.358.462.153.166.358.307.617.423.262.116.598.174 1.009.174.563 0 1.03-.138 1.397-.413.368-.272.552-.706.552-1.303v-1.501h-.095c-.09.162-.218.343-.387.542a2.097 2.097 0 0 1-.687.517c-.291.146-.67.219-1.138.219-.603 0-1.147-.141-1.63-.423-.481-.285-.862-.704-1.144-1.258-.279-.557-.418-1.241-.418-2.053 0-.812.138-1.508.413-2.088.278-.58.66-1.024 1.143-1.333a2.974 2.974 0 0 1 1.646-.467c.474 0 .857.08 1.148.239.292.156.52.338.681.547.166.209.294.393.383.552h.11v-1.238h1.456v7.805c0 .656-.152 1.195-.457 1.616-.305.42-.718.732-1.238.934-.517.203-1.1.304-1.75.304Zm-.015-4.37c.428 0 .789-.1 1.084-.299.298-.202.524-.49.676-.865.156-.377.234-.83.234-1.357 0-.514-.077-.966-.229-1.357-.152-.391-.376-.696-.671-.915-.295-.222-.66-.333-1.094-.333-.447 0-.82.116-1.119.348a2.1 2.1 0 0 0-.676.935c-.149.394-.223.835-.223 1.322 0 .5.076.94.228 1.318.153.377.378.672.677.885.301.212.672.318 1.113.318Zm10.646-8.835V67H90.05V56.818h1.487Zm2 10.182v-7.636h1.486V67h-1.487Zm.75-8.815a.945.945 0 0 1-.666-.258.84.84 0 0 1-.273-.627.83.83 0 0 1 .273-.626.935.935 0 0 1 .666-.264c.259 0 .479.088.661.264a.824.824 0 0 1 .279.626c0 .242-.093.451-.279.627a.927.927 0 0 1-.66.258Zm4.222 4.28V67h-1.486v-7.636h1.427v1.242h.094c.176-.404.45-.729.825-.974.378-.245.854-.368 1.427-.368.521 0 .976.11 1.367.328.391.216.695.537.91.965.216.427.323.956.323 1.586V67h-1.486v-4.678c0-.554-.144-.986-.433-1.298-.288-.315-.684-.472-1.188-.472-.345 0-.651.074-.92.224a1.61 1.61 0 0 0-.631.656c-.153.285-.229.63-.229 1.034Zm8.248 1.945-.01-1.815h.259l3.042-3.231h1.78l-3.47 3.679h-.234l-1.367 1.367ZM105.39 67V56.818h1.486V67h-1.486Zm4.822 0-2.734-3.63 1.024-1.038L112.037 67h-1.825Zm12.398-5.772-1.347.239a1.584 1.584 0 0 0-.269-.493 1.322 1.322 0 0 0-.487-.382c-.205-.1-.462-.15-.77-.15-.421 0-.773.095-1.054.284-.282.185-.423.426-.423.72 0 .256.095.461.284.617.188.156.493.284.914.383l1.213.278c.703.163 1.227.413 1.571.751.345.338.517.777.517 1.318 0 .457-.132.865-.397 1.223-.262.354-.628.633-1.099.835-.467.202-1.009.303-1.626.303-.855 0-1.553-.182-2.093-.547-.54-.368-.871-.89-.994-1.566l1.437-.219c.089.375.273.658.552.85.278.19.641.284 1.088.284.488 0 .877-.101 1.169-.303.291-.206.437-.456.437-.751a.78.78 0 0 0-.268-.602c-.176-.162-.446-.285-.811-.367l-1.292-.284c-.713-.162-1.24-.42-1.581-.775-.338-.355-.507-.804-.507-1.348 0-.45.126-.845.377-1.183.252-.338.6-.602 1.044-.79.445-.193.953-.289 1.527-.289.825 0 1.475.18 1.949.537.474.355.787.83.939 1.427Zm5 5.926c-.715 0-1.34-.164-1.874-.492a3.323 3.323 0 0 1-1.243-1.377c-.295-.59-.442-1.28-.442-2.068 0-.792.147-1.485.442-2.078a3.316 3.316 0 0 1 1.243-1.383c.534-.328 1.159-.492 1.874-.492.716 0 1.341.164 1.875.492.533.328.948.79 1.243 1.383.295.593.442 1.285.442 2.078 0 .788-.147 1.478-.442 2.068a3.323 3.323 0 0 1-1.243 1.377c-.534.328-1.159.492-1.875.492Zm.005-1.248c.464 0 .849-.122 1.154-.368.305-.245.53-.571.676-.98.149-.407.224-.856.224-1.346 0-.488-.075-.935-.224-1.343a2.187 2.187 0 0 0-.676-.989c-.305-.249-.69-.373-1.154-.373-.467 0-.855.124-1.163.373a2.22 2.22 0 0 0-.681.99 3.956 3.956 0 0 0-.219 1.342c0 .49.073.94.219 1.347.149.408.376.734.681.98.308.245.696.367 1.163.367Z"/><path fill="#E0E1E9" d="M144 79H40v2h104v-2Z" mask="url(#c)"/><mask id="d" fill="#fff"><path d="M40 0h104v40H40V0Z"/></mask><path fill="#F4F5F9" d="M40 0h104v40H40V0Z"/><path fill="#191B23" d="M52.528 16.406v-1.133h6.755v1.133H56.56V24h-1.313v-7.594h-2.719ZM60.775 24v-8.727h1.317v3.792h4.35v-3.792h1.322V24h-1.321v-3.805h-4.351V24h-1.317Z"/><path fill="#E0E1E9" d="M144 40v1h1v-1h-1Zm-1-40v40h2V0h-2Zm1 39H40v2h104v-2Z" mask="url(#d)"/><rect width="40" height="6" x="1" y="73" fill="#191B23" fill-opacity=".3" rx="3"/><path fill="url(#e)" d="M0 0h80v5H0z" transform="rotate(-90 109.5 -29.5)"/><defs><linearGradient id="e" x1="40" x2="40" y1="0" y2="5" gradientUnits="userSpaceOnUse"><stop stop-color="#fff" stop-opacity="0"/><stop offset=".885" stop-color="#191B23" stop-opacity=".1"/></linearGradient></defs></svg>
